_includes/icons/color-php.svg

<svg fill="#666" height="50" viewBox="0 0 48 48" width="50" xmlns="http://www.w3.org/2000/svg"><path d="m42 37c0 2.761719-2.238281 5-5 5h-26c-2.761719 0-5-2.238281-5-5v-26c0-2.761719 2.238281-5 5-5h26c2.761719 0 5 2.238281 5 5z" fill="#00bcd4"/><g fill="#fff"><path d="m14 25.484375v3.515625h-1.992187v-10h3.757812c.984375 0 1.769531.308594 2.355469.921875.585937.609375.878906 1.40625.878906 2.390625 0 .980469-.289062 1.75-.867187 2.320313-.578125.566406-1.382813.851562-2.40625.851562zm.015625-1.683594h1.75c.382813 0 .679688-.125.890625-.378906.210938-.25.3125-.617187.3125-1.097656 0-.5-.105469-.894531-.320312-1.191406-.214844-.292969-.5-.445313-.859375-.449219h-1.773438z"/><path d="m31 25.484375v3.515625h-1.992187v-10h3.757812c.984375 0 1.769531.308594 2.355469.921875.585937.609375.878906 1.40625.878906 2.390625 0 .980469-.289062 1.75-.867187 2.320313-.578125.566406-1.382813.851562-2.40625.851562zm.015625-1.683594h1.75c.382813 0 .679688-.125.890625-.378906.210938-.25.3125-.617187.3125-1.097656 0-.5-.105469-.894531-.320312-1.191406-.214844-.292969-.5-.445313-.859375-.449219h-1.773438z"/><path d="m27 29h-2v-4.277344h-3.019531v4.277344h-1.980469v-10h1.980469v4h3.019531v-4h2z"/></g></svg>

<svg xmlns="http://www.w3.org/2000/svg" viewBox="0 0 48 48" width="50" height="50" fill="#666"><path d="M 42 37 C 42 39.761719 39.761719 42 37 42 L 11 42 C 8.238281 42 6 39.761719 6 37 L 6 11 C 6 8.238281 8.238281 6 11 6 L 37 6 C 39.761719 6 42 8.238281 42 11 Z" fill="#00bcd4"/><path d="M 14 25.484375 L 14 29 L 12.007813 29 L 12.007813 19 L 15.765625 19 C 16.75 19 17.535156 19.308594 18.121094 19.921875 C 18.707031 20.53125 19 21.328125 19 22.3125 C 19 23.292969 18.710938 24.0625 18.132813 24.632813 C 17.554688 25.199219 16.75 25.484375 15.726563 25.484375 Z M 14.015625 23.800781 L 15.765625 23.800781 C 16.148438 23.800781 16.445313 23.675781 16.65625 23.421875 C 16.867188 23.171875 16.96875 22.804688 16.96875 22.324219 C 16.96875 21.824219 16.863281 21.429688 16.648438 21.132813 C 16.433594 20.839844 16.148438 20.6875 15.789063 20.683594 L 14.015625 20.683594 Z" fill="#fff"/><path d="M 31 25.484375 L 31 29 L 29.007813 29 L 29.007813 19 L 32.765625 19 C 33.75 19 34.535156 19.308594 35.121094 19.921875 C 35.707031 20.53125 36 21.328125 36 22.3125 C 36 23.292969 35.710938 24.0625 35.132813 24.632813 C 34.554688 25.199219 33.75 25.484375 32.726563 25.484375 Z M 31.015625 23.800781 L 32.765625 23.800781 C 33.148438 23.800781 33.445313 23.675781 33.65625 23.421875 C 33.867188 23.171875 33.96875 22.804688 33.96875 22.324219 C 33.96875 21.824219 33.863281 21.429688 33.648438 21.132813 C 33.433594 20.839844 33.148438 20.6875 32.789063 20.683594 L 31.015625 20.683594 Z" fill="#fff"/><path d="M 27 29 L 25 29 L 25 24.722656 L 21.980469 24.722656 L 21.980469 29 L 20 29 L 20 19 L 21.980469 19 L 21.980469 23 L 25 23 L 25 19 L 27 19 Z" fill="#fff"/></svg>
